X: 41556
T: Union Is Welcome To Ireland, The
R: reel
M: 4/4
K: Eminor
G2 BG FGAF|E2 Bc BGEF|GABG FGAF|DFAB AFDF|
G2 BG F2 AF|E2 Bc BGEF|G2 G2 F2 F2|DFAB AFDF:|
BcBA G2 GA|BcBA Beed|B2 BA G2 FG|DAAB AFDF|
B2 BA G2 GA|BcBA Be e2|dBBA G2 FG|E2 AB AFDF:|

